X: 9
T: Drowsy Maggie
R: reel
M: 4/4
L: 1/8
K: Edor
"Em"E2BE E2BE| E2BE "D"AFDF| "Em"E2BE B2Bc| dedB "D"AFDF||"Em"EEBE dEBE| EEBE "D"AFDF| "Em"EEBE dEBE| dedB "D"AFDF||"Em"EEB,D EB"D"AF | "Em"GABe "D"dBAF | "Em"EEB,D EB"D"AF | "Em"GAGF EDB,D ||EEB,D EB"D"AF | "Em"GABe "D"dBAF | "Em"EEB,D EB"D"AF | "Em"GAGF EDB,G, ||"Am"A,2EA, A,2EA,| A,2EA, "G"DB,G,B,| "Am"A,2EA, E2EF| GAGE "G"DB,G,B,||"Am"A,A,EA, GA,EA,| A,A,EA, "G"DB,G,B,| "Am"A,A,EA, GA,EA,| DEDB, "G"DB,G,B,||"Am"A,A,=CE AGE=C | A,A,=CE AGE=C | A,A,=CE ABAE | =cd=cA "Em"EDCB, || "Am"A,A,=CE AGE=C | A,A,=CE AGE=C | A,A,=CE AB=cd | ed=ce "Em"BAGF ||


Tune 27	Setting 12410

